X:1
T:Partition sans titre
C:Compositeur / Arrangeur
L:1/8
M:4/4
I:linebreak $
K:G
V:1 treble nm="Violon" snm="Vln."
V:1
 Bc |"G" dedB G2 Bc | dedB G2 Bc | d2 g2 f2 g2 |"D" A3 A A2 AB |"C" cdcA"D" F2 AB | %6
"C" cdcA"D" F2 AB |"C" c2 e2"D" d2 F2 |1"G" G3 G GA :|2"G" G3 G G4 |:"G" b3 b b2 a2 | g4 g2 fg | %12
"D" a2 g2 f2 g2 |"C" e3 e e4 |"D" a3 a a2 g2 | f4 f2 e2 |1 dd^cd e2 d2 |"G" B3 B B2 d2 :|2 %18
 dd^cd"G" b2 a2 | g3 g g4 |] %20
